X: 5
T: No_111_The_Song_of_Ce'deēns'_(Juggler's_Song).krn
N: Derived from No_111_The_Song_of_Ce'deēns'_(Juggler's_Song).krn
%%abc-version 2.0
%%abcx-abcm2ps-target-version 5.9.1 (29 Sep 2008)
%%abc-creator hum2abc beta
%%abcx-conversion-date 2019/03/15 08:29:13
%%humdrum-veritas 3812222158
%%humdrum-veritas-data 1034072860
%%linebreak <none>
%%barnumbers 0
L: 1/8
M: 3/4
%%staves {1 2}
V: 1 clef=bass
V: 2 clef=bass
K: A
[V:1] [K:clef=bass][M:3/4]EE=F2E2 | 
[V:2] [K:clef=bass][M:3/4]z4z A,, | 
[V:1] E6 | 
[V:2] (3!accent!A,, z A,, (3!accent!A,, z A,, (3!accent!A,, z A,, | 
[V:1] ECE2(C2 | 
[V:2] z6 | 
[V:1] A,)A,A,2A,2 | 
[V:2] z6 | 
[V:1] A,6 | 
[V:2] z6 | 
[V:1] E4C2 | 
[V:2] z6 | 
[V:1] A,A,A,2F,2 | 
[V:2] z6 | 
[V:1] A,A,A,2F,2 | 
[V:2] z6 | 
[V:1] E,E,F,2E,2 | 
[V:2] z6 | 
[V:1] E,6 | 
[V:2] z6 | 
[V:1] A,A,A,2F,2 | 
[V:2] z6 | 
[V:1] E,E,E,2C,2 | 
[V:2] z6 | 
[V:1] E,E,E,2C,2 | 
[V:2] z6 | 
[V:1] A,,A,,A,,4 | 
[V:2] z6 | 
[V:1] A,,6 ||  
[V:2] z6 ||  
[V:1] [M:2/4]EE EE | 
[V:2] [M:2/4]z4 | 
[V:1] E2EE | 
[V:2] z4 | 
[V:1] E3E | 
[V:2] z4 | 
[V:1] (3CEE (CA,) ||  
[V:2] z4 ||  
[V:1] [M:3/4]A,A,A,4 | 
[V:2] [M:3/4]z6 | 
[V:1] A,6 | 
[V:2] z6 | 
[V:1] E4C2 | 
[V:2] z6 | 
[V:1] A,A,A,2F,2 | 
[V:2] z6 | 
[V:1] A,A,A,2F,2 | 
[V:2] z6 | 
[V:1] E,E,F,2E,2 | 
[V:2] z6 | 
[V:1] E,6 | 
[V:2] z6 | 
[V:1] A,A,A,2F,2 | 
[V:2] z6 | 
[V:1] E,E,E,2C,2 | 
[V:2] z6 | 
[V:1] E,E,E,2C,2 | 
[V:2] z6 | 
[V:1] A,,A,,A,,4 | 
[V:2] z6 | 
[V:1] A,,6 |]  
[V:2] z6 |]  



